!!!OTL: In Hamburg steht ein Haus, in Hamburg steht eine Villia,
!!!ARE: Europa, Mitteleuropa, Deutschland, Westfalen, Muenster
!!!SCT: D0269
!!!YEM: Copyright 1995, estate of Helmut Schaffrath.
**kern
*ICvox
*Ivox
*M2/4
*k[]
*C:
=1
{4g
=2
8cc
8g
8e
8c
=3
4g}
{4ee
=4
8dd
8cc
8b
8a
=5
4g}
{4a
=6
8.g
16f
8e
16f
16f
=7
8g
8g
4g}
=8
{8.g
16f
8e
8f
=9
8g
8g
8g}
{8cc
=10
8b
8b
8a
8b
=11
4cc}
==
!!!AGN: Tanz - Lied, Spiellied
!! Inzipit = Variante zum Lied
!!!ONB: ESAC (Essen Associative Code) Database: DVA
!!!AMT: simple duple
!!!AIN: vox
!!!EED: Helmut Schaffrath
!!!EEV: 1.0
*-
